X:194
T:When Sunny Gets Blue
C:lyrics: Jack Segal; Music: Marvin Fisher
N:TablEdited by Larry Klose
L:1/8
Q:1/4=120
M:4/4
K:F
z7/1C |: (3"Gm7"A2G2 A2 "C7sus"C3C | "Bbm7"cB F_D "Eb9"cB3 | "Fmaj7"z2 A/G/F/E/ "Gm7"D2 G2 | 
"Am7"E8 | "Bm7b5"D3/2F/ G3/2F/ "Bm7b5"_A3/2F/ "Eb9"G/F3/2 | "Am7"C3/2F/ G3/2F/ "Abm7"_A3/2F/ "Db9"G/F3/2 | 
"Gm7"D3/2F/ G3/2F/ "C13"c3"Bb13"B/F/ |1 "A13"A4 "D9"z3"D7b9"C :|2 "Em7"A8 |] "Dmaj7"^F3/2G/ F3/2G/ "Em7"A3=B | 
"F#m7"^cA A2 "B9"A^F "B7b9"F2 | (3"Em7"^F2D2 E2 "A9"F2 "A7b9"G2 | "Dmaj7"A8 | 
"Dm7"F3/2G/ F3/2G/ "G13"A3"G7B13"^A | "Cmaj7"=BG G2 "Am7"GE E2 | (3"F"E2C2 D2 "Dm7"E2 "G7B5"F2 | 
"Gm7"G4 "C13b9"z3"C7b13"C | (3"Gm7"A2G2 A2 "C7sus"C3C | "Bm7b5"cB F_D "Eb9"c3/2B2z/ | 
"Fmaj7"z2 A/G/F/E/ "Gm7"D2 G2 | "Am7"E8 | "Bm7b5"D3/2F/ G3/2(3F (3"Bbm7"_AFG z3/2F/ | 
"Am7"C3/2F/ G3/2F(3FG "Db9"z3/2F/ | "Gm7"A3/2c/ d3/2c/ (3"C7#5"_e2c2 _A2 | "F6/9"G8 | 
"F6/9"z8 | "Gm7"A3/2c/ d3/2c/ (3"C7#5"_e2c2 "Gb9"_A2 | "F6/9"G8 | "F6/9"z8 | 


